**harmony	**harte	**kern	**silbe	**kern	**silbe	**kern	**silbe	**rhyme	**timestamp	**phrase
*M4/4	*M4/4	*ICvox	*	*ICvox	*	*ICvox	*	*	*	*
*	*	*VRlead	*	*VRharmonize*VRresponse	*	*VRharmonize*VRresponse*VRbacking	*	*	*	*
*	*	*Hstimme	*	*Nstimme	*	*Nstimme	*	*	*	*
*e-:	*e-:	*e-:	*	*e-:	*	*e-:	*	*	*	*
*	*	*M4/4	*	*M4/4	*	*M4/4	*	*	*	*
*	*	*clefG2	*	*clefG2	*	*clefG2	*	*	*	*
1r;	1r	r;	.	r;	.	r;	.	.	0	.
=1	=1	=1	=1	=1	=1	=1	=1	=1	=1	=1
*>Letter>A	*>Letter>A	*>Letter>A	*>Letter>A	*>Letter>A	*>Letter>A	*>Letter>A	*>Letter>A	*>Letter>A	*>Letter>A	*>Letter>A
*>Label>Intro	*>Label>Intro	*>Label>Intro	*>Label>Intro	*>Label>Intro	*>Label>Intro	*>Label>Intro	*>Label>Intro	*>Label>Intro	*>Label>Intro	*>Label>Intro
1Gm	G:1	1r	.	1r	.	1r	.	.	0.07	newline
=2	=2	=2	=2	=2	=2	=2	=2	=2	=2	=2
1Gm	G:1	1r	.	1r	.	1r	.	.	1.786	.
=3	=3	=3	=3	=3	=3	=3	=3	=3	=3	=3
1Em	E:1	1r	.	1r	.	1r	.	.	3.503	.
=4	=4	=4	=4	=4	=4	=4	=4	=4	=4	=4
1Em	E:1	1r	.	1r	.	1r	.	.	5.22	.
=5	=5	=5	=5	=5	=5	=5	=5	=5	=5	=5
1Gm	G:1	1r	.	1r	.	1r	.	.	6.937	newline
=6	=6	=6	=6	=6	=6	=6	=6	=6	=6	=6
1Gm	G:1	1r	.	1r	.	1r	.	.	8.678	.
=7	=7	=7	=7	=7	=7	=7	=7	=7	=7	=7
1Dm	D:1	1r	.	1r	.	1r	.	.	10.42	newline
=8	=8	=8	=8	=8	=8	=8	=8	=8	=8	=8
1Dm	D:1	1r	.	1r	.	1r	.	.	12.169	.
=9	=9	=9	=9	=9	=9	=9	=9	=9	=9	=9
1N	N	1r	.	1r	.	1r	.	.	13.918	.
=10	=10	=10	=10	=10	=10	=10	=10	=10	=10	=10
1N	N	1r	.	1r	.	1r	.	.	15.667	.
=11	=11	=11	=11	=11	=11	=11	=11	=11	=11	=11
1N	N	1r	.	1r	.	1r	.	.	17.416	newline
=12	=12	=12	=12	=12	=12	=12	=12	=12	=12	=12
1N	N	1r	.	1r	.	1r	.	.	19.057	.
=13	=13	=13	=13	=13	=13	=13	=13	=13	=13	=13
1N	N	1r	.	1r	.	1r	.	.	20.698	.
=14	=14	=14	=14	=14	=14	=14	=14	=14	=14	=14
1N	N	1r	.	1r	.	1r	.	.	22.339	.
=15	=15	=15	=15	=15	=15	=15	=15	=15	=15	=15
*>Letter>B2	*>Letter>B2	*>Letter>B2	*>Letter>B2	*>Letter>B2	*>Letter>B2	*>Letter>B2	*>Letter>B2	*>Letter>B2	*>Letter>B2	*>Letter>B2
*>Label>Intro	*>Label>Intro	*>Label>Intro	*>Label>Intro	*>Label>Intro	*>Label>Intro	*>Label>Intro	*>Label>Intro	*>Label>Intro	*>Label>Intro	*>Label>Intro
1E-m	E-:min	1r	.	1r	.	1r	.	.	23.979	newline
=16	=16	=16	=16	=16	=16	=16	=16	=16	=16	=16
1D-M	D-:maj	1r	.	1r	.	1r	.	.	25.787	.
=17	=17	=17	=17	=17	=17	=17	=17	=17	=17	=17
1E-m	E-:min	1r	.	1r	.	1r	.	.	27.595	.
=18	=18	=18	=18	=18	=18	=18	=18	=18	=18	=18
1D-M	D-:maj	1r	.	1r	.	1r	.	.	29.402	.
=19	=19	=19	=19	=19	=19	=19	=19	=19	=19	=19
1E-m	E-:min	1r	.	1r	.	1r	.	.	31.21	newline
=20	=20	=20	=20	=20	=20	=20	=20	=20	=20	=20
1D-M	D-:maj	1r	.	1r	.	1r	.	.	32.978	.
=21	=21	=21	=21	=21	=21	=21	=21	=21	=21	=21
1E-m	E-:min	1r	.	1r	.	1r	.	.	34.747	.
=22	=22	=22	=22	=22	=22	=22	=22	=22	=22	=22
1D-M	D-:maj	1r	.	1r	.	1r	.	.	36.515	.
=23	=23	=23	=23	=23	=23	=23	=23	=23	=23	=23
*>Letter>C	*>Letter>C	*>Letter>C	*>Letter>C	*>Letter>C	*>Letter>C	*>Letter>C	*>Letter>C	*>Letter>C	*>Letter>C	*>Letter>C
*>Label>Verse	*>Label>Verse	*>Label>Verse	*>Label>Verse	*>Label>Verse	*>Label>Verse	*>Label>Verse	*>Label>Verse	*>Label>Verse	*>Label>Verse	*>Label>Verse
1E-m	E-:min	8r	.	1r	.	1r	.	.	38.283	newline
.	.	8b-	They	.	.	.	.	.	.	.
.	.	8a-	told	.	.	.	.	.	.	.
.	.	8b-	him	.	.	.	.	.	.	.
.	.	8a-	don't	.	.	.	.	.	.	.
.	.	8b-	you	.	.	.	.	.	.	.
.	.	8a-	e-	.	.	.	.	.	.	.
.	.	8b-	-ver	.	.	.	.	.	.	.
=24	=24	=24	=24	=24	=24	=24	=24	=24	=24	=24
1D-M	D-:maj	8dd-	come	1r	.	1r	.	.	39.944	.
.	.	8b-	a-	.	.	.	.	.	.	.
.	.	4a-	-round	.	.	.	.	.	.	.
.	.	4b-	here	.	.	.	.	A	.	.
.	.	8r	.	.	.	.	.	.	.	.
.	.	8b-	Don't	.	.	.	.	.	.	.
=25	=25	=25	=25	=25	=25	=25	=25	=25	=25	=25
1E-m	E-:min	8b-	want	1r	.	1r	.	.	41.605	.
.	.	8b-	to	.	.	.	.	.	.	.
.	.	8b-	see	.	.	.	.	.	.	.
.	.	8b-	your	.	.	.	.	.	.	.
.	.	8b-	face	.	.	.	.	.	.	.
.	.	8b-	you	.	.	.	.	.	.	.
.	.	8a-	bet-	.	.	.	.	.	.	.
.	.	8g-	-ter	.	.	.	.	.	.	.
=26	=26	=26	=26	=26	=26	=26	=26	=26	=26	=26
1D-M	D-:maj	8a-	dis-	1r	.	1r	.	.	43.266	.
.	.	8g-	-a-	.	.	.	.	.	.	.
.	.	4b-	-ppear	.	.	.	.	A	.	.
.	.	4r	.	.	.	.	.	.	.	.
.	.	8r	.	.	.	.	.	.	.	.
.	.	8b-	The	.	.	.	.	.	.	.
=27	=27	=27	=27	=27	=27	=27	=27	=27	=27	=27
1C-M	C-:maj	8a-	fi-	1r	.	1r	.	.	44.926	newline
.	.	8g-	-re's	.	.	.	.	.	.	.
.	.	8e-	in	.	.	.	.	.	.	.
.	.	8d-	their	.	.	.	.	.	.	.
.	.	4e-	eyes	.	.	.	.	.	.	.
.	.	8d-	and	.	.	.	.	.	.	.
.	.	8e-	their	.	.	.	.	.	.	.
=28	=28	=28	=28	=28	=28	=28	=28	=28	=28	=28
1D-M	D-:maj	8f	words	2r	.	1r	.	.	46.659	.
.	.	8e-	are	.	.	.	.	.	.	.
.	.	8d-	rea-	.	.	.	.	.	.	.
.	.	8B-	-lly	.	.	.	.	.	.	.
.	.	4d-	clear	4r	.	.	.	A	.	.
.	.	4e-	So	4e-	So	.	.	.	.	.
=29	=29	=29	=29	=29	=29	=29	=29	=29	=29	=29
1E-m	E-:min	8g-	beat	8g-	beat	1r	.	B	48.392	.
.	.	8e-	it	8e-	it	.	.	.	.	.
.	.	4r	.	4r	.	.	.	.	.	.
.	.	4r	.	4r	.	.	.	.	.	.
.	.	4e-	Just	4e-	Just	.	.	.	.	.
=30	=30	=30	=30	=30	=30	=30	=30	=30	=30	=30
1D-M	D-:maj	8f	beat	8f	beat	1r	.	B	50.125	.
.	.	8d-	it	8d-	it	.	.	.	.	.
.	.	4r	.	4r	.	.	.	.	.	.
.	.	2r	.	2r	.	.	.	.	.	.
=31	=31	=31	=31	=31	=31	=31	=31	=31	=31	=31
1E-m	E-:min	8r	.	1r	.	1r	.	.	51.858	newline
.	.	8b-	You	.	.	.	.	.	.	.
.	.	8a-	bet-	.	.	.	.	.	.	.
.	.	8b-	-ter	.	.	.	.	.	.	.
.	.	8b-	run	.	.	.	.	.	.	.
.	.	8b-	you	.	.	.	.	.	.	.
.	.	8a-	bet-	.	.	.	.	.	.	.
.	.	8b-	-ter	.	.	.	.	.	.	.
=32	=32	=32	=32	=32	=32	=32	=32	=32	=32	=32
1D-M	D-:maj	8dd-	do	1r	.	1r	.	.	53.586	.
.	.	8b-	what	.	.	.	.	.	.	.
.	.	4a-	you	.	.	.	.	.	.	.
.	.	4b-	can	.	.	.	.	C	.	.
.	.	8r	.	.	.	.	.	.	.	.
.	.	8b-	Don't	.	.	.	.	.	.	.
=33	=33	=33	=33	=33	=33	=33	=33	=33	=33	=33
1E-m	E-:min	8b-	want	1r	.	1r	.	.	55.314	.
.	.	8b-	to	.	.	.	.	.	.	.
.	.	8b-	see	.	.	.	.	.	.	.
.	.	8b-	no	.	.	.	.	.	.	.
.	.	8a-	blood	.	.	.	.	.	.	.
.	.	8b-	don't	.	.	.	.	.	.	.
.	.	8a-	be	.	.	.	.	.	.	.
.	.	8g-	a	.	.	.	.	.	.	.
=34	=34	=34	=34	=34	=34	=34	=34	=34	=34	=34
1D-M	D-:maj	8a-	ma-	1r	.	1r	.	.	57.042	.
.	.	8g-	-cho	.	.	.	.	.	.	.
.	.	4b-	man	.	.	.	.	C	.	.
.	.	4r	.	.	.	.	.	.	.	.
.	.	8r	.	.	.	.	.	.	.	.
.	.	8b-	You	.	.	.	.	.	.	.
=35	=35	=35	=35	=35	=35	=35	=35	=35	=35	=35
1C-M	C-:maj	8a-	want	1r	.	1r	.	.	58.77	newline
.	.	8g-	to	.	.	.	.	.	.	.
.	.	4e-	be	.	.	.	.	.	.	.
.	.	8e-	tough	.	.	.	.	.	.	.
.	.	8r	.	.	.	.	.	.	.	.
.	.	8d-	bet-	.	.	.	.	.	.	.
.	.	8e-	-ter	.	.	.	.	.	.	.
=36	=36	=36	=36	=36	=36	=36	=36	=36	=36	=36
1D-M	D-:maj	8f	do	2r	.	1r	.	.	60.545	.
.	.	8e-	what	.	.	.	.	.	.	.
.	.	4d-	you	.	.	.	.	.	.	.
.	.	4d-	can	4r	.	.	.	C	.	.
.	.	4e-	So	4e-	So	.	.	.	.	.
=37	=37	=37	=37	=37	=37	=37	=37	=37	=37	=37
1E-m	E-:min	8g-	beat	8g-	beat	1r	.	B	62.319	.
.	.	8e-	it	8e-	it	.	.	.	.	.
.	.	4r	.	4r	.	.	.	.	.	.
.	.	4r	.	2r	.	.	.	.	.	.
.	.	8b-	but	.	.	.	.	.	.	.
.	.	8b-	you	.	.	.	.	.	.	.
=38	=38	=38	=38	=38	=38	=38	=38	=38	=38	=38
1D-M	D-:maj	8dd-	want	1r	.	1r	.	.	64.094	.
.	.	8b-	to	.	.	.	.	.	.	.
.	.	4a-	be	.	.	.	.	.	.	.
.	.	4b-	bad	.	.	.	.	.	.	.
.	.	4a-	Just	.	.	.	.	.	.	.
=39	=39	=39	=39	=39	=39	=39	=39	=39	=39	=39
*>Letter>B	*>Letter>B	*>Letter>B	*>Letter>B	*>Letter>B	*>Letter>B	*>Letter>B	*>Letter>B	*>Letter>B	*>Letter>B	*>Letter>B
*>Label>Chorus	*>Label>Chorus	*>Label>Chorus	*>Label>Chorus	*>Label>Chorus	*>Label>Chorus	*>Label>Chorus	*>Label>Chorus	*>Label>Chorus	*>Label>Chorus	*>Label>Chorus
1E-m	E-:min	8b-	beat	2r	.	1r	.	.	65.869	newline
.	.	4.b-	it	.	.	.	.	.	.	.
.	.	2r	.	8e- 8g-	Beat	.	.	.	.	.
.	.	.	.	4.e- 4.g-	it	.	.	.	.	.
=40	=40	=40	=40	=40	=40	=40	=40	=40	=40	=40
1D-M	D-:maj	8b-	Beat	2r	.	1r	.	B	67.548	.
.	.	4.b-	it	.	.	.	.	.	.	.
.	.	4r	.	8d- 8f	Beat	.	.	B	.	.
.	.	.	.	8d- 8f	it	.	.	.	.	.
.	.	8r	.	8r	.	.	.	.	.	.
.	.	[8b-	No	[8e- [8g-	No	.	.	.	.	.
=41	=41	=41	=41	=41	=41	=41	=41	=41	=41	=41
1E-m	E-:min	8b-]	_	8e-] 8g-]	_	1r	.	.	69.227	.
.	.	8b-	one	8e- 8g-	one	.	.	.	.	.
.	.	8b-	wants	8e- 8g-	wants	.	.	.	.	.
.	.	8b-	to	8e- 8g-	to	.	.	.	.	.
.	.	4dd-	be	4g- 4b-	be	.	.	B	.	.
.	.	8b-	de-	8e- 8g-	de-	.	.	b	.	.
.	.	[8dd-	-feat	[8f [8a-	-feat-	.	.	B	.	.
=42	=42	=42	=42	=42	=42	=42	=42	=42	=42	=42
1D-M	D-:maj	8dd-]	_	8f] 8a-]	_	1r	.	.	70.907	.
.	.	8dd-	ed	8f 8a-	-ed	.	.	.	.	.
.	.	4r	.	4r	.	.	.	.	.	.
.	.	4r	.	2r	.	.	.	.	.	.
.	.	8r	.	.	.	.	.	.	.	.
.	.	[8a-	Show	.	.	.	.	.	.	.
=43	=43	=43	=43	=43	=43	=43	=43	=43	=43	=43
1E-m	E-:min	8a-]	_	1r	.	1r	.	.	72.586	newline
.	.	8g-	in'	.	.	.	.	.	.	.
.	.	8a-	how	.	.	.	.	.	.	.
.	.	8r	.	.	.	.	.	.	.	.
.	.	8g-	fun-	.	.	.	.	.	.	.
.	.	8a-	-ky	.	.	.	.	b	.	.
.	.	8r	.	.	.	.	.	.	.	.
.	.	[8a-	strong	.	.	.	.	.	.	.
=44	=44	=44	=44	=44	=44	=44	=44	=44	=44	=44
1D-M	D-:maj	8a-]	_	1r	.	1r	.	.	74.312	.
.	.	8g-	is	.	.	.	.	.	.	.
.	.	8a-	your	.	.	.	.	.	.	.
.	.	8r	.	.	.	.	.	.	.	.
.	.	8g-	fight	.	.	.	.	D	.	.
.	.	8r	.	.	.	.	.	.	.	.
.	.	8r	.	.	.	.	.	.	.	.
.	.	[8a-	It	.	.	.	.	.	.	.
=45	=45	=45	=45	=45	=45	=45	=45	=45	=45	=45
1E-m	E-:min	8a-]	_	1r	.	1r	.	.	76.039	.
.	.	8g-	does-	.	.	.	.	.	.	.
.	.	8a-	-n't	.	.	.	.	.	.	.
.	.	8r	.	.	.	.	.	.	.	.
.	.	8g-	mat-	.	.	.	.	.	.	.
.	.	8a-	-ter	.	.	.	.	.	.	.
.	.	8r	.	.	.	.	.	.	.	.
.	.	[8a-	who's	.	.	.	.	.	.	.
=46	=46	=46	=46	=46	=46	=46	=46	=46	=46	=46
1D-M	D-:maj	8a-]	_	1r	.	1r	.	.	77.765	.
.	.	8g-	wrong	.	.	.	.	.	.	.
.	.	8a-	or	.	.	.	.	.	.	.
.	.	8r	.	.	.	.	.	.	.	.
.	.	8g-	right	.	.	.	.	D	.	.
.	.	8r	.	.	.	.	.	.	.	.
.	.	4a-	Just	.	.	.	.	.	.	.
=47	=47	=47	=47	=47	=47	=47	=47	=47	=47	=47
1E-m	E-:min	8g-	beat	2r	.	2r	.	B	79.491	newline
.	.	8e-	it	.	.	.	.	.	.	.
.	.	4r	.	.	.	.	.	.	.	.
.	.	4r	.	8g-	Beat	8E-	Beat	B	.	.
.	.	.	.	8e-	it	8E-	it	.	.	.
.	.	8e-	Just	4r	.	4r	.	.	.	.
.	.	8r	.	.	.	.	.	.	.	.
=48	=48	=48	=48	=48	=48	=48	=48	=48	=48	=48
1D-M	D-:maj	8f	beat	4r	.	1r	.	B	81.221	.
.	.	8d-	it	.	.	.	.	.	.	.
.	.	4r	.	8a-	beat	.	.	B	.	.
.	.	.	.	8f	it	.	.	.	.	.
.	.	4r	.	2r	.	.	.	.	.	.
.	.	4a-	Just	.	.	.	.	.	.	.
=49	=49	=49	=49	=49	=49	=49	=49	=49	=49	=49
1E-m	E-:min	8g-	beat	2r	.	2r	.	B	82.951	.
.	.	8e-	it	.	.	.	.	.	.	.
.	.	4r	.	.	.	.	.	.	.	.
.	.	4r	.	8g-	Beat	8E-	Beat	B	.	.
.	.	.	.	8e-	it	8E-	it	.	.	.
.	.	8e-	Just	4r	.	4r	.	.	.	.
.	.	8r	.	.	.	.	.	.	.	.
=50	=50	=50	=50	=50	=50	=50	=50	=50	=50	=50
1D-M	D-:maj	8f	beat	4r	.	1r	.	B	84.681	.
.	.	8d-	it	.	.	.	.	.	.	.
.	.	4r	.	8a-	Beat	.	.	B	.	.
.	.	.	.	8f	it	.	.	.	.	.
.	.	2r	.	2r	.	.	.	.	.	.
=51	=51	=51	=51	=51	=51	=51	=51	=51	=51	=51
*>Letter>C	*>Letter>C	*>Letter>C	*>Letter>C	*>Letter>C	*>Letter>C	*>Letter>C	*>Letter>C	*>Letter>C	*>Letter>C	*>Letter>C
*>Label>Verse	*>Label>Verse	*>Label>Verse	*>Label>Verse	*>Label>Verse	*>Label>Verse	*>Label>Verse	*>Label>Verse	*>Label>Verse	*>Label>Verse	*>Label>Verse
1E-m	E-:min	8r	.	1r	.	1r	.	.	86.411	newline
.	.	8b-	They're	.	.	.	.	.	.	.
.	.	8a-	out	.	.	.	.	.	.	.
.	.	8b-	to	.	.	.	.	.	.	.
.	.	8a-	get	.	.	.	.	.	.	.
.	.	8b-	you	.	.	.	.	.	.	.
.	.	8a-	bet-	.	.	.	.	.	.	.
.	.	8b-	-ter	.	.	.	.	.	.	.
=52	=52	=52	=52	=52	=52	=52	=52	=52	=52	=52
1D-M	D-:maj	8dd-	leave	1r	.	1r	.	.	88.159	.
.	.	8b-	while	.	.	.	.	.	.	.
.	.	4a-	you	.	.	.	.	.	.	.
.	.	4b-	can	.	.	.	.	C	.	.
.	.	8r	.	.	.	.	.	.	.	.
.	.	8b-	Don't	.	.	.	.	.	.	.
=53	=53	=53	=53	=53	=53	=53	=53	=53	=53	=53
1E-m	E-:min	8b-	want	1r	.	1r	.	.	89.907	.
.	.	8b-	to	.	.	.	.	.	.	.
.	.	8b-	be	.	.	.	.	.	.	.
.	.	8b-	a	.	.	.	.	.	.	.
.	.	8a-	boy	.	.	.	.	.	.	.
.	.	8b-	you	.	.	.	.	.	.	.
.	.	8a-	want	.	.	.	.	.	.	.
.	.	8g-	to	.	.	.	.	.	.	.
=54	=54	=54	=54	=54	=54	=54	=54	=54	=54	=54
1D-M	D-:maj	8a-	be	1r	.	1r	.	.	91.655	.
.	.	8g-	a	.	.	.	.	.	.	.
.	.	4b-	man	.	.	.	.	C	.	.
.	.	4r	.	.	.	.	.	.	.	.
.	.	8r	.	.	.	.	.	.	.	.
.	.	8b-	You	.	.	.	.	.	.	.
=55	=55	=55	=55	=55	=55	=55	=55	=55	=55	=55
1C-M	C-:maj	8a-	want	1r	.	1r	.	.	93.403	newline
.	.	8g-	to	.	.	.	.	.	.	.
.	.	8e-	stay	.	.	.	.	.	.	.
.	.	8d-	a-	.	.	.	.	.	.	.
.	.	8e-	-live	.	.	.	.	.	.	.
.	.	8r	.	.	.	.	.	.	.	.
.	.	8d-	bet-	.	.	.	.	.	.	.
.	.	8e-	-ter	.	.	.	.	.	.	.
=56	=56	=56	=56	=56	=56	=56	=56	=56	=56	=56
1D-M	D-:maj	8f	do	1r	.	1r	.	.	95.109	.
.	.	8e-	what	.	.	.	.	.	.	.
.	.	4d-	you	.	.	.	.	.	.	.
.	.	8d-	can	.	.	.	.	C	.	.
.	.	8r	.	.	.	.	.	.	.	.
.	.	4e-	So	.	.	.	.	.	.	.
=57	=57	=57	=57	=57	=57	=57	=57	=57	=57	=57
1E-m	E-:min	8g-	beat	1r	.	1r	.	B	96.815	.
.	.	8e-	it	.	.	.	.	.	.	.
.	.	4r	.	.	.	.	.	.	.	.
.	.	4r	.	.	.	.	.	.	.	.
.	.	4e-	Just	.	.	.	.	.	.	.
=58	=58	=58	=58	=58	=58	=58	=58	=58	=58	=58
1D-M	D-:maj	8f	beat	1r	.	1r	.	B	98.522	.
.	.	8d-	it	.	.	.	.	.	.	.
.	.	4r	.	.	.	.	.	.	.	.
.	.	2r	.	.	.	.	.	.	.	.
=59	=59	=59	=59	=59	=59	=59	=59	=59	=59	=59
1E-m	E-:min	8r	.	1r	.	1r	.	.	100.228	newline
.	.	8b-	You	.	.	.	.	.	.	.
.	.	8a-	have	.	.	.	.	.	.	.
.	.	8b-	to	.	.	.	.	.	.	.
.	.	8a-	show	.	.	.	.	.	.	.
.	.	8b-	them	.	.	.	.	.	.	.
.	.	8a-	that	.	.	.	.	.	.	.
.	.	8b-	you're	.	.	.	.	.	.	.
=60	=60	=60	=60	=60	=60	=60	=60	=60	=60	=60
1D-M	D-:maj	8dd-	rea-	1r	.	1r	.	.	101.949	.
.	.	8b-	-lly	.	.	.	.	.	.	.
.	.	4a-	not	.	.	.	.	.	.	.
.	.	4b-	scared	.	.	.	.	E	.	.
.	.	8r	.	.	.	.	.	.	.	.
.	.	8b-	You're	.	.	.	.	.	.	.
=61	=61	=61	=61	=61	=61	=61	=61	=61	=61	=61
1E-m	E-:min	8b-	play-	1r	.	1r	.	.	103.671	.
.	.	8b-	-in'	.	.	.	.	.	.	.
.	.	8b-	with	.	.	.	.	.	.	.
.	.	8b-	your	.	.	.	.	.	.	.
.	.	8a-	life	.	.	.	.	.	.	.
.	.	8b-	this	.	.	.	.	.	.	.
.	.	8a-	ain't	.	.	.	.	.	.	.
.	.	8g-	no	.	.	.	.	.	.	.
=62	=62	=62	=62	=62	=62	=62	=62	=62	=62	=62
1D-M	D-:maj	8a-	truth	1r	.	1r	.	.	105.393	.
.	.	8g-	or	.	.	.	.	.	.	.
.	.	4b-	dare	.	.	.	.	E	.	.
.	.	4r	.	.	.	.	.	.	.	.
.	.	8r	.	.	.	.	.	.	.	.
.	.	8b-	They'll	.	.	.	.	.	.	.
=63	=63	=63	=63	=63	=63	=63	=63	=63	=63	=63
1C-M	C-:maj	8a-	kick	1r	.	1r	.	.	107.115	newline
.	.	8g-	you	.	.	.	.	.	.	.
.	.	8d-	then	.	.	.	.	.	.	.
.	.	8e-	they	.	.	.	.	.	.	.
.	.	8g-	beat	.	.	.	.	.	.	.
.	.	8e-	you	.	.	.	.	.	.	.
.	.	8d-	then	.	.	.	.	.	.	.
.	.	8e-	they'll	.	.	.	.	.	.	.
=64	=64	=64	=64	=64	=64	=64	=64	=64	=64	=64
1D-M	D-:maj	8f	tell	2r	.	1r	.	.	108.844	.
.	.	8e-	you	.	.	.	.	.	.	.
.	.	4d-	it's	.	.	.	.	.	.	.
.	.	4d-	fair	4r	.	.	.	E	.	.
.	.	4e-	So	4e-	So	.	.	.	.	.
=65	=65	=65	=65	=65	=65	=65	=65	=65	=65	=65
1E-m	E-:min	8g-	beat	8g-	beat	1r	.	B	110.573	.
.	.	8e-	it	8e-	it	.	.	.	.	.
.	.	4r	.	4r	.	.	.	.	.	.
.	.	4r	.	2r	.	.	.	.	.	.
.	.	8b-	But	.	.	.	.	.	.	.
.	.	8b-	you	.	.	.	.	.	.	.
=66	=66	=66	=66	=66	=66	=66	=66	=66	=66	=66
1D-M	D-:maj	8dd-	wan-	1r	.	1r	.	.	112.302	.
.	.	8b-	-na	.	.	.	.	.	.	.
.	.	4a-	be	.	.	.	.	.	.	.
.	.	4b-	bad	.	.	.	.	C	.	.
.	.	4a-	Just	.	.	.	.	.	.	.
=67	=67	=67	=67	=67	=67	=67	=67	=67	=67	=67
*>Letter>B	*>Letter>B	*>Letter>B	*>Letter>B	*>Letter>B	*>Letter>B	*>Letter>B	*>Letter>B	*>Letter>B	*>Letter>B	*>Letter>B
*>Label>Chorus	*>Label>Chorus	*>Label>Chorus	*>Label>Chorus	*>Label>Chorus	*>Label>Chorus	*>Label>Chorus	*>Label>Chorus	*>Label>Chorus	*>Label>Chorus	*>Label>Chorus
1E-m	E-:min	8b-	beat	2r	.	1r	.	B	114.03	newline
.	.	4.b-	it	.	.	.	.	.	.	.
.	.	2r	.	8e- 8g-	Beat	.	.	B	.	.
.	.	.	.	4.e- 4.g-	it	.	.	.	.	.
=68	=68	=68	=68	=68	=68	=68	=68	=68	=68	=68
1D-M	D-:maj	8b-	Beat	2r	.	1r	.	B	115.752	.
.	.	4.b-	it	.	.	.	.	.	.	.
.	.	4r	.	8d- 8f	Beat	.	.	B	.	.
.	.	.	.	8d- 8f	it	.	.	.	.	.
.	.	8r	.	8r	.	.	.	.	.	.
.	.	[8b-	No	[8e- [8g-	No	.	.	.	.	.
=69	=69	=69	=69	=69	=69	=69	=69	=69	=69	=69
1E-m	E-:min	8b-]	_	8e-] 8g-]	_	1r	.	.	117.474	.
.	.	8b-	one	8e- 8g-	one	.	.	.	.	.
.	.	8b-	wants	8e- 8g-	wants	.	.	.	.	.
.	.	8b-	to	8e- 8g-	to	.	.	.	.	.
.	.	4dd-	be	4g- 4b-	be	.	.	B	.	.
.	.	8b-	de-	8e- 8g-	de-	.	.	b	.	.
.	.	[8dd-	-feat	[8f [8a-	-feat-	.	.	B	.	.
=70	=70	=70	=70	=70	=70	=70	=70	=70	=70	=70
1D-M	D-:maj	8dd-]	_	8f] 8a-]	_	1r	.	.	119.196	.
.	.	8dd-	ed	8f 8a-	-ed	.	.	.	.	.
.	.	4r	.	4r	.	.	.	.	.	.
.	.	4r	.	2r	.	.	.	.	.	.
.	.	8r	.	.	.	.	.	.	.	.
.	.	[8a-	Show	.	.	.	.	.	.	.
=71	=71	=71	=71	=71	=71	=71	=71	=71	=71	=71
1E-m	E-:min	8a-]	_	1r	.	1r	.	.	120.918	newline
.	.	8g-	in'	.	.	.	.	.	.	.
.	.	8a-	how	.	.	.	.	.	.	.
.	.	8r	.	.	.	.	.	.	.	.
.	.	8g-	fun-	.	.	.	.	.	.	.
.	.	8a-	-ky	.	.	.	.	b	.	.
.	.	8r	.	.	.	.	.	.	.	.
.	.	[8a-	strong	.	.	.	.	.	.	.
=72	=72	=72	=72	=72	=72	=72	=72	=72	=72	=72
1D-M	D-:maj	8a-]	_	1r	.	1r	.	.	122.648	.
.	.	8g-	is	.	.	.	.	.	.	.
.	.	8a-	your	.	.	.	.	.	.	.
.	.	8r	.	.	.	.	.	.	.	.
.	.	8g-	fight	.	.	.	.	D	.	.
.	.	8r	.	.	.	.	.	.	.	.
.	.	8r	.	.	.	.	.	.	.	.
.	.	[8a-	It	.	.	.	.	.	.	.
=73	=73	=73	=73	=73	=73	=73	=73	=73	=73	=73
1E-m	E-:min	8a-]	_	1r	.	1r	.	.	124.378	.
.	.	8g-	does-	.	.	.	.	.	.	.
.	.	8a-	-n't	.	.	.	.	.	.	.
.	.	8r	.	.	.	.	.	.	.	.
.	.	8g-	mat-	.	.	.	.	.	.	.
.	.	8a-	-ter	.	.	.	.	.	.	.
.	.	8r	.	.	.	.	.	.	.	.
.	.	[8a-	who's	.	.	.	.	.	.	.
=74	=74	=74	=74	=74	=74	=74	=74	=74	=74	=74
1D-M	D-:maj	8a-]	_	1r	.	1r	.	.	126.107	.
.	.	8g-	wrong	.	.	.	.	.	.	.
.	.	8a-	or	.	.	.	.	.	.	.
.	.	8r	.	.	.	.	.	.	.	.
.	.	8g-	right	.	.	.	.	D	.	.
.	.	8r	.	.	.	.	.	.	.	.
.	.	4a-	Just	.	.	.	.	.	.	.
=75	=75	=75	=75	=75	=75	=75	=75	=75	=75	=75
1E-m	E-:min	8b-	beat	2r	.	1r	.	B	127.837	newline
.	.	4.b-	it	.	.	.	.	.	.	.
.	.	2r	.	8e- 8g-	Beat	.	.	B	.	.
.	.	.	.	4.e- 4.g-	it	.	.	.	.	.
=76	=76	=76	=76	=76	=76	=76	=76	=76	=76	=76
1D-M	D-:maj	8b-	Beat	2r	.	1r	.	B	129.585	.
.	.	4.b-	it	.	.	.	.	.	.	.
.	.	4r	.	8d- 8f	Beat	.	.	B	.	.
.	.	.	.	8d- 8f	it	.	.	.	.	.
.	.	8r	.	8r	.	.	.	.	.	.
.	.	[8b-	No	[8e- [8g-	No	.	.	.	.	.
=77	=77	=77	=77	=77	=77	=77	=77	=77	=77	=77
1E-m	E-:min	8b-]	_	8e-] 8g-]	_	1r	.	.	131.333	.
.	.	8b-	one	8e- 8g-	one	.	.	.	.	.
.	.	8b-	wants	8e- 8g-	wants	.	.	.	.	.
.	.	8b-	to	8e- 8g-	to	.	.	.	.	.
.	.	4dd-	be	4g- 4b-	be	.	.	B	.	.
.	.	8b-	de-	8e- 8g-	de-	.	.	b	.	.
.	.	[8dd-	-feat	[8f [8a-	-feat-	.	.	B	.	.
=78	=78	=78	=78	=78	=78	=78	=78	=78	=78	=78
1D-M	D-:maj	8dd-]	_	8f] 8a-]	_	1r	.	.	133.081	.
.	.	8dd-	ed	8f 8a-	-ed	.	.	.	.	.
.	.	4r	.	4r	.	.	.	.	.	.
.	.	4r	.	2r	.	.	.	.	.	.
.	.	8r	.	.	.	.	.	.	.	.
.	.	[8a-	Show	.	.	.	.	.	.	.
=79	=79	=79	=79	=79	=79	=79	=79	=79	=79	=79
1E-m	E-:min	8a-]	_	1r	.	1r	.	.	134.828	newline
.	.	8g-	in'	.	.	.	.	.	.	.
.	.	8a-	how	.	.	.	.	.	.	.
.	.	8r	.	.	.	.	.	.	.	.
.	.	8g-	fun-	.	.	.	.	.	.	.
.	.	8a-	-ky	.	.	.	.	b	.	.
.	.	8r	.	.	.	.	.	.	.	.
.	.	[8a-	strong	.	.	.	.	.	.	.
=80	=80	=80	=80	=80	=80	=80	=80	=80	=80	=80
1D-M	D-:maj	8a-]	_	1r	.	1r	.	.	136.533	.
.	.	8g-	is	.	.	.	.	.	.	.
.	.	8a-	your	.	.	.	.	.	.	.
.	.	8r	.	.	.	.	.	.	.	.
.	.	8g-	fight	.	.	.	.	D	.	.
.	.	8r	.	.	.	.	.	.	.	.
.	.	8r	.	.	.	.	.	.	.	.
.	.	[8a-	It	.	.	.	.	.	.	.
=81	=81	=81	=81	=81	=81	=81	=81	=81	=81	=81
1E-m	E-:min	8a-]	_	1r	.	1r	.	.	138.238	.
.	.	8g-	does-	.	.	.	.	.	.	.
.	.	8a-	-n't	.	.	.	.	.	.	.
.	.	8r	.	.	.	.	.	.	.	.
.	.	8g-	mat-	.	.	.	.	.	.	.
.	.	8a-	-ter	.	.	.	.	.	.	.
.	.	8r	.	.	.	.	.	.	.	.
.	.	[8a-	who's	.	.	.	.	.	.	.
=82	=82	=82	=82	=82	=82	=82	=82	=82	=82	=82
1D-M	D-:maj	8a-]	_	1r	.	1r	.	.	139.943	.
.	.	8g-	wrong	.	.	.	.	.	.	.
.	.	8a-	or	.	.	.	.	.	.	.
.	.	8r	.	.	.	.	.	.	.	.
.	.	8g-	right	.	.	.	.	D	.	.
.	.	8r	.	.	.	.	.	.	.	.
.	.	4a-	Just	.	.	.	.	.	.	.
=83	=83	=83	=83	=83	=83	=83	=83	=83	=83	=83
*>Letter>D	*>Letter>D	*>Letter>D	*>Letter>D	*>Letter>D	*>Letter>D	*>Letter>D	*>Letter>D	*>Letter>D	*>Letter>D	*>Letter>D
*>Label>Instrumental	*>Label>Instrumental	*>Label>Instrumental	*>Label>Instrumental	*>Label>Instrumental	*>Label>Instrumental	*>Label>Instrumental	*>Label>Instrumental	*>Label>Instrumental	*>Label>Instrumental	*>Label>Instrumental
1E-m	E-:min	8g-	Beat	1r	.	1r	.	.	141.648	newline
.	.	8e-	it	.	.	.	.	.	.	.
.	.	8g-	Beat	.	.	.	.	.	.	.
.	.	8e-	it	.	.	.	.	.	.	.
.	.	8g-	Beat	.	.	.	.	.	.	.
.	.	8e-	it	.	.	.	.	.	.	.
.	.	8g-	Beat	.	.	.	.	.	.	.
.	.	8e-	it	.	.	.	.	.	.	.
=84	=84	=84	=84	=84	=84	=84	=84	=84	=84	=84
1E-m	E-:min	2r	.	1r	.	1r	.	.	143.379	.
.	.	8g-	Beat	.	.	.	.	.	.	.
.	.	8e-	it	.	.	.	.	.	.	.
.	.	8g-	Beat	.	.	.	.	.	.	.
.	.	8e-	it	.	.	.	.	.	.	.
=85	=85	=85	=85	=85	=85	=85	=85	=85	=85	=85
1E-m	E-:min	1r	.	1r	.	1r	.	.	145.11	.
=86	=86	=86	=86	=86	=86	=86	=86	=86	=86	=86
1E-m	E-:min	1r	.	1r	.	1r	.	.	146.841	.
=87	=87	=87	=87	=87	=87	=87	=87	=87	=87	=87
1E-m	E-:min	1r	.	1r	.	1r	.	.	148.573	newline
=88	=88	=88	=88	=88	=88	=88	=88	=88	=88	=88
1E-m	E-:min	2r	.	1r	.	1r	.	.	150.295	.
.	.	8g-	Beat	.	.	.	.	.	.	.
.	.	8e-	it	.	.	.	.	.	.	.
.	.	8g-	Beat	.	.	.	.	.	.	.
.	.	8e-	it	.	.	.	.	.	.	.
=89	=89	=89	=89	=89	=89	=89	=89	=89	=89	=89
1E-m	E-:min	1r	.	1r	.	1r	.	.	152.018	.
=90	=90	=90	=90	=90	=90	=90	=90	=90	=90	=90
1E-m	E-:min	8g-	Beat	1r	.	1r	.	.	153.741	.
.	.	8e-	it	.	.	.	.	.	.	.
.	.	8g-	Beat	.	.	.	.	.	.	.
.	.	8e-	it	.	.	.	.	.	.	.
.	.	2r	.	.	.	.	.	.	.	.
=91	=91	=91	=91	=91	=91	=91	=91	=91	=91	=91
1E-m	E-:min	1r	.	1r	.	1r	.	.	155.464	newline
=92	=92	=92	=92	=92	=92	=92	=92	=92	=92	=92
1E-m	E-:min	1r	.	1r	.	1r	.	.	157.192	.
=93	=93	=93	=93	=93	=93	=93	=93	=93	=93	=93
1E-m	E-:min	1r	.	1r	.	1r	.	.	158.919	.
=94	=94	=94	=94	=94	=94	=94	=94	=94	=94	=94
1E-m	E-:min	8g-	Beat	1r	.	1r	.	.	160.647	.
.	.	8e-	it	.	.	.	.	.	.	.
.	.	8g-	Beat	.	.	.	.	.	.	.
.	.	8e-	it	.	.	.	.	.	.	.
.	.	2r	.	.	.	.	.	.	.	.
=95	=95	=95	=95	=95	=95	=95	=95	=95	=95	=95
1E-m	E-:min	1r	.	1r	.	1r	.	.	162.375	newline
=96	=96	=96	=96	=96	=96	=96	=96	=96	=96	=96
1E-m	E-:min	1r	.	1r	.	1r	.	.	164.109	.
=97	=97	=97	=97	=97	=97	=97	=97	=97	=97	=97
1E-m	E-:min	1r	.	1r	.	1r	.	.	165.843	.
=98	=98	=98	=98	=98	=98	=98	=98	=98	=98	=98
1E-m	E-:min	1r	.	1r	.	1r	.	.	167.577	.
=99	=99	=99	=99	=99	=99	=99	=99	=99	=99	=99
*>Letter>C	*>Letter>C	*>Letter>C	*>Letter>C	*>Letter>C	*>Letter>C	*>Letter>C	*>Letter>C	*>Letter>C	*>Letter>C	*>Letter>C
*>Label>Solo	*>Label>Solo	*>Label>Solo	*>Label>Solo	*>Label>Solo	*>Label>Solo	*>Label>Solo	*>Label>Solo	*>Label>Solo	*>Label>Solo	*>Label>Solo
1E-m	E-:min	1r	.	1r	.	1r	.	.	169.31	newline
=100	=100	=100	=100	=100	=100	=100	=100	=100	=100	=100
1D-M	D-:maj	1r	.	1r	.	1r	.	.	171.043	.
=101	=101	=101	=101	=101	=101	=101	=101	=101	=101	=101
1E-m	E-:min	1r	.	1r	.	1r	.	.	172.776	.
=102	=102	=102	=102	=102	=102	=102	=102	=102	=102	=102
1D-M	D-:maj	1r	.	1r	.	1r	.	.	174.509	.
=103	=103	=103	=103	=103	=103	=103	=103	=103	=103	=103
1C-M	C-:maj	1r	.	1r	.	1r	.	.	176.242	newline
=104	=104	=104	=104	=104	=104	=104	=104	=104	=104	=104
1D-M	D-:maj	1r	.	1r	.	1r	.	.	177.967	.
=105	=105	=105	=105	=105	=105	=105	=105	=105	=105	=105
1E-m	E-:min	1r	.	1r	.	1r	.	.	179.692	.
=106	=106	=106	=106	=106	=106	=106	=106	=106	=106	=106
1D-M	D-:maj	1r	.	1r	.	1r	.	.	181.416	.
=107	=107	=107	=107	=107	=107	=107	=107	=107	=107	=107
1E-m	E-:min	1r	.	1r	.	1r	.	.	183.141	newline
=108	=108	=108	=108	=108	=108	=108	=108	=108	=108	=108
1D-M	D-:maj	1r	.	1r	.	1r	.	.	184.864	.
=109	=109	=109	=109	=109	=109	=109	=109	=109	=109	=109
1E-m	E-:min	1r	.	1r	.	1r	.	.	186.587	.
=110	=110	=110	=110	=110	=110	=110	=110	=110	=110	=110
1D-M	D-:maj	1r	.	1r	.	1r	.	.	188.309	.
=111	=111	=111	=111	=111	=111	=111	=111	=111	=111	=111
1C-M	C-:maj	1r	.	1r	.	1r	.	.	190.032	newline
=112	=112	=112	=112	=112	=112	=112	=112	=112	=112	=112
1D-M	D-:maj	1r	.	1r	.	1r	.	.	191.76	.
=113	=113	=113	=113	=113	=113	=113	=113	=113	=113	=113
1E-m	E-:min	1r	.	1r	.	1r	.	.	193.488	.
=114	=114	=114	=114	=114	=114	=114	=114	=114	=114	=114
1D-M	D-:maj	1r	.	1r	.	1r	.	.	195.216	.
=115	=115	=115	=115	=115	=115	=115	=115	=115	=115	=115
*>Letter>B	*>Letter>B	*>Letter>B	*>Letter>B	*>Letter>B	*>Letter>B	*>Letter>B	*>Letter>B	*>Letter>B	*>Letter>B	*>Letter>B
*>Label>Chorus	*>Label>Chorus	*>Label>Chorus	*>Label>Chorus	*>Label>Chorus	*>Label>Chorus	*>Label>Chorus	*>Label>Chorus	*>Label>Chorus	*>Label>Chorus	*>Label>Chorus
1E-m	E-:min	8b-	beat	2r	.	1r	.	B	196.944	newline
.	.	4.b-	it	.	.	.	.	.	.	.
.	.	2r	.	8e- 8g-	Beat	.	.	B	.	.
.	.	.	.	4.e- 4.g-	it	.	.	.	.	.
=116	=116	=116	=116	=116	=116	=116	=116	=116	=116	=116
1D-M	D-:maj	8b-	Beat	2r	.	1r	.	B	198.686	.
.	.	4.b-	it	.	.	.	.	.	.	.
.	.	4r	.	8d- 8f	Beat	.	.	B	.	.
.	.	.	.	8d- 8f	it	.	.	.	.	.
.	.	8r	.	8r	.	.	.	.	.	.
.	.	[8b-	No	[8e- [8g-	No	.	.	.	.	.
=117	=117	=117	=117	=117	=117	=117	=117	=117	=117	=117
1E-m	E-:min	8b-]	_	8e-] 8g-]	_	1r	.	.	200.428	.
.	.	8b-	one	8e- 8g-	one	.	.	.	.	.
.	.	8b-	wants	8e- 8g-	wants	.	.	.	.	.
.	.	8b-	to	8e- 8g-	to	.	.	.	.	.
.	.	4dd-	be	4g- 4b-	be	.	.	B	.	.
.	.	8b-	de-	8e- 8g-	de-	.	.	b	.	.
.	.	[8dd-	-feat	[8f [8a-	-feat-	.	.	.	.	B
=118	=118	=118	=118	=118	=118	=118	=118	=118	=118	=118
1D-M	D-:maj	8dd-]	_	8f] 8a-]	_	1r	.	.	202.17	.
.	.	8dd-	ed	8f 8a-	-ed	.	.	.	.	.
.	.	4r	.	4r	.	.	.	.	.	.
.	.	4r	.	2r	.	.	.	.	.	.
.	.	8r	.	.	.	.	.	.	.	.
.	.	[8a-	Show	.	.	.	.	.	.	.
=119	=119	=119	=119	=119	=119	=119	=119	=119	=119	=119
1E-m	E-:min	8a-]	_	1r	.	1r	.	.	203.912	newline
.	.	8g-	in'	.	.	.	.	.	.	.
.	.	8a-	how	.	.	.	.	.	.	.
.	.	8r	.	.	.	.	.	.	.	.
.	.	8g-	fun-	.	.	.	.	.	.	.
.	.	8a-	-ky	.	.	.	.	b	.	.
.	.	8r	.	.	.	.	.	.	.	.
.	.	[8a-	strong	.	.	.	.	.	.	.
=120	=120	=120	=120	=120	=120	=120	=120	=120	=120	=120
1D-M	D-:maj	8a-]	_	1r	.	1r	.	.	205.628	.
.	.	8g-	is	.	.	.	.	.	.	.
.	.	8a-	your	.	.	.	.	.	.	.
.	.	8r	.	.	.	.	.	.	.	.
.	.	8g-	fight	.	.	.	.	D	.	.
.	.	8r	.	.	.	.	.	.	.	.
.	.	8r	.	.	.	.	.	.	.	.
.	.	[8a-	It	.	.	.	.	.	.	.
=121	=121	=121	=121	=121	=121	=121	=121	=121	=121	=121
1E-m	E-:min	8a-]	_	1r	.	1r	.	.	207.344	.
.	.	8g-	does-	.	.	.	.	.	.	.
.	.	8a-	-n't	.	.	.	.	.	.	.
.	.	8r	.	.	.	.	.	.	.	.
.	.	8g-	mat-	.	.	.	.	.	.	.
.	.	8a-	-ter	.	.	.	.	.	.	.
.	.	8r	.	.	.	.	.	.	.	.
.	.	[8a-	who's	.	.	.	.	.	.	.
=122	=122	=122	=122	=122	=122	=122	=122	=122	=122	=122
1D-M	D-:maj	8a-]	_	1r	.	4.r	.	.	209.06	.
.	.	8g-	wrong	.	.	.	.	.	.	.
.	.	8a-	or	.	.	.	.	.	.	.
.	.	8r	.	.	.	4.b-	Who's	.	.	.
.	.	8g-	right	.	.	.	.	D	.	.
.	.	8r	.	.	.	.	.	.	.	.
.	.	4a-	Just	.	.	16a-	right	.	.	.
.	.	.	.	.	.	8.g-	_	.	.	.
=123	=123	=123	=123	=123	=123	=123	=123	=123	=123	=123
1E-m	E-:min	8b-	beat	2r	.	4.r	.	B	210.776	newline
.	.	4.b-	it	.	.	.	.	.	.	.
.	.	.	.	.	.	[8aa-	Hoo	.	.	.
.	.	2r	.	8e- 8g-	Beat	2aa-]	_	B	.	.
.	.	.	.	4.e- 4.g-	it	.	.	.	.	.
=124	=124	=124	=124	=124	=124	=124	=124	=124	=124	=124
1D-M	D-:maj	8b-	Beat	2r	.	2gg-	hoo	B	212.498	.
.	.	4.b-	it	.	.	.	.	.	.	.
.	.	4r	.	8d- 8f	Beat	2r	.	B	.	.
.	.	.	.	8d- 8f	it	.	.	.	.	.
.	.	8r	.	8r	.	.	.	.	.	.
.	.	[8b-	No	[8e- [8g-	No	.	.	.	.	.
=125	=125	=125	=125	=125	=125	=125	=125	=125	=125	=125
1E-m	E-:min	8b-]	_	8e-] 8g-]	_	1r	.	.	214.219	.
.	.	8b-	one	8e- 8g-	one	.	.	.	.	.
.	.	8b-	wants	8e- 8g-	wants	.	.	.	.	.
.	.	8b-	to	8e- 8g-	to	.	.	.	.	.
.	.	4dd-	be	4g- 4b-	be	.	.	B	.	.
.	.	8b-	de-	8e- 8g-	de-	.	.	b	.	.
.	.	[8dd-	-feat	[8f [8a-	-feat-	.	.	B	.	.
=126	=126	=126	=126	=126	=126	=126	=126	=126	=126	=126
1D-M	D-:maj	8dd-]	_	8f] 8a-]	_	8r	.	.	215.941	.
.	.	8dd-	ed	8f 8a-	-ed	4a-	Oh	.	.	.
.	.	4r	.	4r	.	.	.	.	.	.
.	.	.	.	.	.	8a-	lord	.	.	.
.	.	4r	.	2r	.	4g-	_	.	.	.
.	.	8r	.	.	.	4r	.	.	.	.
.	.	[8a-	Show	.	.	.	.	.	.	.
=127	=127	=127	=127	=127	=127	=127	=127	=127	=127	=127
1E-m	E-:min	8a-]	_	1r	.	2r	.	.	217.663	newline
.	.	8g-	in'	.	.	.	.	.	.	.
.	.	8a-	how	.	.	.	.	.	.	.
.	.	8r	.	.	.	.	.	.	.	.
.	.	8g-	fun-	.	.	8r	.	.	.	.
.	.	8a-	-ky	.	.	8aa-	Hee	b	.	.
.	.	8r	.	.	.	8r	.	.	.	.
.	.	[8a-	strong	.	.	[8gg-	hee	.	.	.
=128	=128	=128	=128	=128	=128	=128	=128	=128	=128	=128
1D-M	D-:maj	8a-]	_	1r	.	8gg-]	_	.	219.392	.
.	.	8g-	is	.	.	8r	.	.	.	.
.	.	8a-	your	.	.	4r	.	.	.	.
.	.	8r	.	.	.	.	.	.	.	.
.	.	8g-	fight	.	.	4.aa-	Hee	D	.	.
.	.	8r	.	.	.	.	.	.	.	.
.	.	8r	.	.	.	.	.	.	.	.
.	.	[8a-	It	.	.	8gg-	Hee	.	.	.
=129	=129	=129	=129	=129	=129	=129	=129	=129	=129	=129
1E-m	E-:min	8a-]	_	1r	.	8r	.	.	221.121	.
.	.	8g-	does-	.	.	8gg-	hee	.	.	.
.	.	8a-	-n't	.	.	8aa-	_	.	.	.
.	.	8r	.	.	.	8r	.	.	.	.
.	.	8g-	mat-	.	.	2r	.	.	.	.
.	.	8a-	-ter	.	.	.	.	.	.	.
.	.	8r	.	.	.	.	.	.	.	.
.	.	[8a-	who's	.	.	.	.	.	.	.
=130	=130	=130	=130	=130	=130	=130	=130	=130	=130	=130
1D-M	D-:maj	8a-]	_	1r	.	1r	.	.	222.85	.
.	.	8g-	wrong	.	.	.	.	.	.	.
.	.	8a-	or	.	.	.	.	.	.	.
.	.	8r	.	.	.	.	.	.	.	.
.	.	8g-	right	.	.	.	.	D	.	.
.	.	8r	.	.	.	.	.	.	.	.
.	.	4a-	Just	.	.	.	.	.	.	.
=131	=131	=131	=131	=131	=131	=131	=131	=131	=131	=131
1E-m	E-:min	8b-	beat	2r	.	1r	.	B	224.579	newline
.	.	4.b-	it	.	.	.	.	.	.	.
.	.	2r	.	8e- 8g-	Beat	.	.	B	.	.
.	.	.	.	4.e- 4.g-	it	.	.	.	.	.
=132	=132	=132	=132	=132	=132	=132	=132	=132	=132	=132
1D-M	D-:maj	8b-	Beat	2r	.	4.r	.	B	226.31	.
.	.	4.b-	it	.	.	.	.	.	.	.
.	.	.	.	.	.	4b-	Beat	B	.	.
.	.	4r	.	8d- 8f	Beat	.	.	.	.	.
.	.	.	.	8d- 8f	it	8a-	it	.	.	.
.	.	8r	.	8r	.	4g-	_	.	.	.
.	.	[8b-	No	[8e- [8g-	No	.	.	.	.	.
=133	=133	=133	=133	=133	=133	=133	=133	=133	=133	=133
1E-m	E-:min	8b-]	_	8e-] 8g-]	_	1r	.	.	228.041	.
.	.	8b-	one	8e- 8g-	one	.	.	.	.	.
.	.	8b-	wants	8e- 8g-	wants	.	.	.	.	.
.	.	8b-	to	8e- 8g-	to	.	.	.	.	.
.	.	4dd-	be	4g- 4b-	be	.	.	B	.	.
.	.	8b-	de-	8e- 8g-	de-	.	.	b	.	.
.	.	[8dd-	-feat	[8f [8a-	-feat-	.	.	B	.	.
=134	=134	=134	=134	=134	=134	=134	=134	=134	=134	=134
1D-M	D-:maj	8dd-]	_	8f] 8a-]	_	8r	.	.	229.771	.
.	.	8dd-	ed	8f 8a-	-ed	8B-	Oh	.	.	.
.	.	4r	.	4r	.	16A-	no	.	.	.
.	.	.	.	.	.	16G-	_	.	.	.
.	.	.	.	.	.	4.E-	_	.	.	.
.	.	4r	.	2r	.	.	.	.	.	.
.	.	8r	.	.	.	4r	.	.	.	.
.	.	[8a-	Show	.	.	.	.	.	.	.
=135	=135	=135	=135	=135	=135	=135	=135	=135	=135	=135
1E-m	E-:min	8a-]	_	1r	.	4.r	.	.	231.502	newline
.	.	8g-	in'	.	.	.	.	.	.	.
.	.	8a-	how	.	.	.	.	.	.	.
.	.	8r	.	.	.	4aa-	Hee	.	.	.
.	.	8g-	fun-	.	.	.	.	.	.	.
.	.	8a-	-ky	.	.	8r	.	b	.	.
.	.	8r	.	.	.	4gg-	hee	.	.	.
.	.	[8a-	strong	.	.	.	.	.	.	.
=136	=136	=136	=136	=136	=136	=136	=136	=136	=136	=136
1D-M	D-:maj	8a-]	_	1r	.	4.r	.	.	233.231	.
.	.	8g-	is	.	.	.	.	.	.	.
.	.	8a-	your	.	.	.	.	.	.	.
.	.	8r	.	.	.	4.aa-	hee	.	.	.
.	.	8g-	fight	.	.	.	.	D	.	.
.	.	8r	.	.	.	.	.	.	.	.
.	.	8r	.	.	.	8gg-	hee	.	.	.
.	.	[8a-	It	.	.	8r	.	.	.	.
=137	=137	=137	=137	=137	=137	=137	=137	=137	=137	=137
1E-m	E-:min	8a-]	_	1r	.	2r	.	.	234.96	.
.	.	8g-	does-	.	.	.	.	.	.	.
.	.	8a-	-n't	.	.	.	.	.	.	.
.	.	8r	.	.	.	.	.	.	.	.
.	.	8g-	mat-	.	.	8r	.	.	.	.
.	.	8a-	-ter	.	.	8bb-	hee	.	.	.
.	.	8r	.	.	.	4r	.	.	.	.
.	.	[8a-	who's	.	.	.	.	.	.	.
=138	=138	=138	=138	=138	=138	=138	=138	=138	=138	=138
1D-M	D-:maj	8a-]	_	1r	.	1r	.	.	236.689	.
.	.	8g-	wrong	.	.	.	.	.	.	.
.	.	8a-	or	.	.	.	.	.	.	.
.	.	8r	.	.	.	.	.	.	.	.
.	.	8g-	right	.	.	.	.	D	.	.
.	.	8r	.	.	.	.	.	.	.	.
.	.	4a-	Just	.	.	.	.	.	.	.
=139	=139	=139	=139	=139	=139	=139	=139	=139	=139	=139
1E-m	E-:min	8b-	beat	2r	.	1r	.	B	238.418	newline
.	.	4.b-	it	.	.	.	.	.	.	.
.	.	2r	.	8e- 8g-	Beat	.	.	B	.	.
.	.	.	.	4.e- 4.g-	it	.	.	.	.	.
=140	=140	=140	=140	=140	=140	=140	=140	=140	=140	=140
1D-M	D-:maj	8b-	Beat	2r	.	1r	.	B	240.153	.
.	.	4.b-	it	.	.	.	.	.	.	.
.	.	4r	.	8d- 8f	Beat	.	.	B	.	.
.	.	.	.	8d- 8f	it	.	.	.	.	.
.	.	8r	.	8r	.	.	.	.	.	.
.	.	[8b-	No	[8e- [8g-	No	.	.	.	.	.
=141	=141	=141	=141	=141	=141	=141	=141	=141	=141	=141
1E-m	E-:min	8b-]	_	8e-] 8g-]	_	1r	.	.	241.888	.
.	.	8b-	one	8e- 8g-	one	.	.	.	.	.
.	.	8b-	wants	8e- 8g-	wants	.	.	.	.	.
.	.	8b-	to	8e- 8g-	to	.	.	.	.	.
.	.	4dd-	be	4g- 4b-	be	.	.	B	.	.
.	.	8b-	de-	8e- 8g-	de-	.	.	b	.	.
.	.	[8dd-	-feat	[8f [8a-	-feat-	.	.	B	.	.
=142	=142	=142	=142	=142	=142	=142	=142	=142	=142	=142
1D-M	D-:maj	8dd-]	_	8f] 8a-]	_	1r	.	.	243.623	.
.	.	8dd-	ed	8f 8a-	-ed	.	.	.	.	.
.	.	4r	.	4r	.	.	.	.	.	.
.	.	4r	.	2r	.	.	.	.	.	.
.	.	8r	.	.	.	.	.	.	.	.
.	.	[8a-	Show	.	.	.	.	.	.	.
=143	=143	=143	=143	=143	=143	=143	=143	=143	=143	=143
*>Label>>Fadeout	*>Label>>Fadeout	*>Label>>Fadeout	*>Label>>Fadeout	*>Label>>Fadeout	*>Label>>Fadeout	*>Label>>Fadeout	*>Label>>Fadeout	*>Label>>Fadeout	*>Label>>Fadeout	*>Label>>Fadeout
1E-m	E-:min	8a-]	_	1r	.	1r	.	.	245.359	newline
.	.	8g-	in'	.	.	.	.	.	.	.
.	.	8a-	how	.	.	.	.	.	.	.
.	.	8r	.	.	.	.	.	.	.	.
.	.	8g-	fun-	.	.	.	.	.	.	.
.	.	8a-	-ky	.	.	.	.	b	.	.
.	.	8r	.	.	.	.	.	.	.	.
.	.	[8a-	strong	.	.	.	.	.	.	.
=144	=144	=144	=144	=144	=144	=144	=144	=144	=144	=144
1D-M	D-:maj	8a-]	_	1r	.	1r	.	.	247.084	.
.	.	8g-	is	.	.	.	.	.	.	.
.	.	8a-	your	.	.	.	.	.	.	.
.	.	8r	.	.	.	.	.	.	.	.
.	.	8g-	fight	.	.	.	.	D	.	.
.	.	8r	.	.	.	.	.	.	.	.
.	.	8r	.	.	.	.	.	.	.	.
.	.	[8a-	It	.	.	.	.	.	.	.
=145	=145	=145	=145	=145	=145	=145	=145	=145	=145	=145
1E-m	E-:min	8a-]	_	1r	.	1r	.	.	248.81	.
.	.	8g-	does-	.	.	.	.	.	.	.
.	.	8a-	-n't	.	.	.	.	.	.	.
.	.	8r	.	.	.	.	.	.	.	.
.	.	8g-	mat-	.	.	.	.	.	.	.
.	.	8a-	-ter	.	.	.	.	.	.	.
.	.	8r	.	.	.	.	.	.	.	.
.	.	[8a-	who's	.	.	.	.	.	.	.
=146	=146	=146	=146	=146	=146	=146	=146	=146	=146	=146
1D-M	D-:maj	8a-]	_	1r	.	1r	.	.	250.535	.
.	.	8g-	wrong	.	.	.	.	.	.	.
.	.	8a-	or	.	.	.	.	.	.	.
.	.	8r	.	.	.	.	.	.	.	.
.	.	8g-	right	.	.	.	.	D	.	.
.	.	8r	.	.	.	.	.	.	.	.
.	.	4a-	Just	.	.	.	.	.	.	.
=147	=147	=147	=147	=147	=147	=147	=147	=147	=147	=147
1E-m	E-:min	8b-	beat	2r	.	1r	.	B	252.261	newline
.	.	4.b-	it	.	.	.	.	.	.	.
.	.	2r	.	8e- 8g-	Beat	.	.	B	.	.
.	.	.	.	4.e- 4.g-	it	.	.	.	.	.
=148	=148	=148	=148	=148	=148	=148	=148	=148	=148	=148
1D-M	D-:maj	8b-	Beat	2r	.	1r	.	B	253.399	.
.	.	4.b-	it	.	.	.	.	.	.	.
.	.	4r	.	8d- 8f	Beat	.	.	B	.	.
.	.	.	.	8d- 8f	it	.	.	.	.	.
.	.	8r	.	8r	.	.	.	.	.	.
.	.	[8b-	No	[8e- [8g-	No	.	.	.	.	.
=149	=149	=149	=149	=149	=149	=149	=149	=149	=149	=149
1E-m	E-:min	8b-]	_	8e-] 8g-]	_	1r	.	.	254.537	.
.	.	8b-	one	8e- 8g-	one	.	.	.	.	.
.	.	8b-	wants	8e- 8g-	wants	.	.	.	.	.
.	.	8b-	to	8e- 8g-	to	.	.	.	.	.
.	.	4dd-	be	4g- 4b-	be	.	.	B	.	.
.	.	8b-	de-	8e- 8g-	de-	.	.	b	.	.
.	.	[8dd-	-feat	[8f [8a-	-feat-	.	.	B	.	.
=150	=150	=150	=150	=150	=150	=150	=150	=150	=150	=150
1D-M	D-:maj	8dd-]	_	8f] 8a-]	_	1r	.	.	255.675	.
.	.	8dd-	ed	8f 8a-	-ed	.	.	.	.	.
.	.	4r	.	4r	.	.	.	.	.	.
.	.	2r	.	2r	.	.	.	.	.	.
1r;	1r	r;	.	r;	.	r;	.	.	256.813	.
1r;	1r	r;	.	r;	.	r;	.	.	257.934	.
*-	*-	*-	*-	*-	*-	*-	*-	*-	*-	*-
!!!BillboardChartDate: 1983/04/02
!!!BillboardPeak: 1
!!!BillboardWeeksOnChart: 25
!!!COC: Michael Jackson
!!!ENC: Nathaniel Condit-Schultz
!!!EST: Awating manual error checking and editing.
!!!OTL: Beat It
!!!RDF**chordsym: original McGill chord annotation + (implied pitch class set, with bass pitch in first position)
!!!RDF**harmony: **recip + pitch class of root + harmonic quality
!!!RDF**leadinstrument: original McGill primary instrumentation annotation
!!!RDF**phrase: newline = linebreak in original McGill transcription
!!!RDF**timestamp: McGill audio timestamp in seconds
!!!RDT: 2017/01/12/
!!!SampleActualRank: 14
!!!SampleID#: 0629
!!!SampleTargetRank: 14
!!!MBID: de798de6-70fc-49f6-b580-339cd2e62052
